!!!!SEGMENT: pl-sa--85-a-ii-25--002_hasse-johann-adolf--jesu-dulcis-memoria.krn
!!!cenid: 17xx:389
!!!COM: Hasse, Johann Adolf
!!!COM-rismid: pe51928
!!!CDT: 1699/03/25-1783/12/16
!!!CNT: German
!!!OTL: Jesu dulcis memoria
!!!PDT:
!!!AGN: Sacred
!!!SMS-siglum: PL-SA
!!!SMS-shelfmark: 85/A II 25
!!!SMS-shelfwork: 002 W
!!!NIFC-rismid: 1001069539
!!!URL-scan: http://bc.bdsandomierz.pl/dlibra/publication/1363/edition/1331/content
!!!ONB-nifc:
!!!AIN: 1 bass 1 viola 2 violn 1 vox
!!!key:
**kern	**dynam	**kern	**dynam	**kern	**dynam	**kern	**dynam	**kern	**text
*part5	*part5	*part4	*part4	*part3	*part3	*part2	*part2	*part1	*part1
*group1	*	*group1	*	*group1	*	*group1	*	*	*
*staff5	*	*staff4	*	*staff3	*	*staff2	*	*staff1	*staff1
*Ibass	*	*Iviola	*	*Ivioln	*	*Ivioln	*	*Ivox	*
*I"Basso	*	*I"Alto viola.	*	*I"Violino Secundo.	*	*I"Violino 1mo.	*	*I"Canto Solo	*
*I'bc	*	*I'a-vla	*	*I'vl II	*	*I'vl I	*	*I'C	*
*clefF4	*	*clefC3	*	*clefG2	*	*clefG2	*	*clefC1	*
*k[b-e-]	*	*k[b-e-]	*	*k[b-e-]	*	*k[b-e-]	*	*k[b-e-]	*
*B-:	*	*B-:	*	*B-:	*	*B-:	*	*B-:	*
*M2/2	*	*M2/2	*	*M2/2	*	*M2/2	*	*M2/2	*
*met(c|)	*	*met(c|)	*	*met(c|)	*	*met(c|)	*	*met(c|)	*
*>[A,B,A]	*	*>[A,B,A]	*	*>[A,B,A]	*	*>[A,B,A]	*	*>[A,B,A]	*
*>A	*	*>A	*	*>A	*	*>A	*	*>A	*
!LO:TX:a:t=Aria:problem=dopisane ołówkiem "druga"	!	!LO:TX:a:t=Aria druga:problem=dopisane ołówkiem	!	!LO:TX:a:t=Aria druga	!	!LO:TX:a:t=Aria druga	!	!LO:TX:a:t=Aria 2da	!
!LO:TX:b:t=Jezu Dulcis	!	!	!	!	!	!	!	!	!
!LO:TX:a:t=P:problem=przy kluczu [E-BB-]	!	!LO:TX:a:t=P:problem=przy kluczu [e-B-]	!	!	!	!	!	!LO:TX:a:t=P:problem=błędnie wpisane znaki przykluczowe [a-ee-]	!
4r	.	4r	.	4f/	.	4f/	.	4r	.
=1	=1	=1	=1	=1	=1	=1	=1	=1	=1
4BB-/	.	4d\	.	16b-/KL	.	16b-/KL	.	00r	.
.	.	.	.	8.f/J	.	8.f/J	.	.	.
4BB-/	.	4e-\	.	16dd\KL	.	16dd\KL	.	.	.
.	.	.	.	8.b-\J	.	8.b-\J	.	.	.
4BB-/	.	4d\	.	4ff\	.	4ff\	.	.	.
4BB-/	.	4dd\	.	4bb-\	.	4bb-\	.	.	.
=2	=2	=2	=2	=2	=2	=2	=2	=2	=2
4F\	.	16cc\KL	.	16aa\KL	.	16aa\KL	.	.	.
.	.	8.b-\J	.	8.gg\J	.	8.gg\J	.	.	.
4F\	.	4a\	.	4ff\	.	4ff\	.	.	.
4D\	.	4f\	.	4r	.	4r	.	.	.
4D\	.	4f\	.	4b-/	.	4b-/	.	.	.
=3	=3	=3	=3	=3	=3	=3	=3	=3	=3
4E-\	.	4g\	.	8b-/	.	8cc\	.	.	.
.	.	.	.	4b-/	.	4cc\	.	.	.
4E-\	.	4g\	.	.	.	.	.	.	.
.	.	.	.	4b-/	.	4cc\	.	.	.
4F\	.	4f\	.	.	.	.	.	.	.
.	.	.	.	4a/	.	4cc\	.	.	.
4F\	.	4f\	.	.	.	.	.	.	.
.	.	.	.	16b-/LL	.	16dd\LL	.	.	.
.	.	.	.	16cc/JJ	.	16ee-\JJ	.	.	.
=4	=4	=4	=4	=4	=4	=4	=4	=4	=4
!	!	!	!	!LO:N:vis=16.	!	!	!	!	!
.	.	.	.	.	.	8qqee-/	.	.	.
4B-\	.	4f\	.	8.b-\L	.	8.dd\L	.	.	.
!	!	!	!	!LO:N:vis=8	!	!	!	!	!
.	.	.	.	16cc\Jk	.	16ee-\Jk	.	.	.
*	*	*	*	*2\right	*	*2\right	*	*	*
4B-\	.	4f\	.	2dd\	.	2ff\	.	.	.
4D\	.	4f\	.	.	.	.	.	.	.
4D\	.	4f\	.	4b-/	.	4b-/	.	.	.
=5	=5	=5	=5	=5	=5	=5	=5	=5	=5
4E-\	.	4g\	.	8b-/	.	8cc\	.	00r	.
.	.	.	.	4b-/	.	4cc\	.	.	.
4E-\	.	4g\	.	.	.	.	.	.	.
.	.	.	.	4b-/	.	4cc\	.	.	.
4F\	.	4f\	.	.	.	.	.	.	.
.	.	.	.	4a/	.	4cc\	.	.	.
4F\	.	4f\	.	.	.	.	.	.	.
.	.	.	.	16b-/LL	.	16dd\LL	.	.	.
.	.	.	.	16cc/JJ	.	16ee-\JJ	.	.	.
=6	=6	=6	=6	=6	=6	=6	=6	=6	=6
4BB-/	.	4f\	.	4b-\	.	(32dd\LLL	.	.	.
.	.	.	.	.	.	32cc\JJ)	.	.	.
.	.	.	.	.	.	8.b-\J	.	.	.
4BB-/	.	4d\	.	2B-/	.	2B-/	.	.	.
4BB-/	.	4d\	.	.	.	.	.	.	.
4BB-/	.	4d\	.	4ff\	.	4ff\	.	.	.
=7	=7	=7	=7	=7	=7	=7	=7	=7	=7
4BB-/	.	4e-\	.	(16gg\KL	.	16gg\KL	.	.	.
.	.	.	.	8.ee-\J)	.	8.ee-\J	.	.	.
4BB-/	.	4e-\	.	2B-/	.	2B-/	.	.	.
4BB-/	.	4e-\	.	.	.	.	.	.	.
4BB-/	.	4e-\	.	4gg\	.	4gg\	.	.	.
!	!	!	!	!LO:LB:g=original	!	!	!	!	!
=8	=8	=8	=8	=8	=8	=8	=8	=8	=8
4BB-/	.	4d\	.	16ff\KL	.	16ff\KL	.	.	.
.	.	.	.	8.dd\J	.	8.dd\J	.	.	.
4BB-/	.	4d\	.	2B-/	.	2B-/	.	.	.
4BB-/	.	4d\	.	.	.	.	.	.	.
4BB-/	.	4d\	.	4ff\	.	4ff\	.	.	.
!	!	!	!	!	!	!LO:LB:g=original	!	!	!
=9	=9	=9	=9	=9	=9	=9	=9	=9	=9
4F\	.	16c/KL	.	16ee-\KL	.	16ee-\KL	.	00r	.
.	.	8.A/J	.	8.cc\J	.	8.cc\J	.	.	.
4F\	.	4c/	.	2c/	.	2c/	.	.	.
4F\	.	4c/	.	.	.	.	.	.	.
4F\	.	4F/	.	4ee-\	.	4ee-\	.	.	.
=10	=10	=10	=10	=10	=10	=10	=10	=10	=10
4B-\	.	4b-\	.	8b-/	.	8dd\	.	.	.
.	.	.	.	4b-/	.	4dd\	.	.	.
4A\	.	4a\	.	.	.	.	.	.	.
.	.	.	.	4b-/	.	4dd\	.	.	.
4G\	.	4g\	.	.	.	.	.	.	.
.	.	.	.	4b-/	.	4dd\	.	.	.
4F\	.	4f\	.	.	.	.	.	.	.
.	.	.	.	8b-/	.	[8dd\	.	.	.
!	!	!LO:LB:g=original	!	!	!	!	!	!	!
=11	=11	=11	=11	=11	=11	=11	=11	=11	=11
4E-\	.	4e-\	.	4b-\	.	4dd\]	.	.	.
4E-\	.	4e-\	.	4ee-\	.	4gg\	.	.	.
4F\	.	4f\	.	(32dd\LLL	.	(32ff\LLL	.	.	.
.	.	.	.	32cc\JJ)	.	32ee-\JJ)	.	.	.
.	.	.	.	8.b-\J	.	8.dd\J	.	.	.
4F\	.	4f\	.	(32cc\LLL	.	(32ee-\LLL	.	.	.
.	.	.	.	32b-\JJ)	.	32dd\JJ)	.	.	.
!	!	!	!	!LO:N:vis=8	!	!	!	!	!
.	.	.	.	8.a\J	.	8.cc\J	.	.	.
!LO:LB:g=original	!	!	!	!	!	!	!	!	!
=12	=12	=12	=12	=12	=12	=12	=12	=12	=12
*	*	*	*	*	*below	*	*	*	*
!	!	!	!	!	!LO:DY:t=pia.	!	!	!	!
4B-\	p	4B-/	p	8b-/	p	8dd\	.	.	.
.	.	.	.	4b-/	.	4dd\	.	.	.
4A\	.	4A/	.	.	.	.	.	.	.
.	.	.	.	4b-/	.	4dd\	.	.	.
4G\	.	4G/	.	.	.	.	.	.	.
.	.	.	.	4b-/	.	4dd\	.	.	.
4F\	.	4F/	.	.	.	.	.	.	.
.	.	.	.	8b-/	.	8dd\	.	.	.
=13	=13	=13	=13	=13	=13	=13	=13	=13	=13
4E-\	.	4E-/	.	4b-/	.	4dd\	.	00r	.
4E-\	.	4E-/	.	4ee-\	.	4gg\	.	.	.
4F\	.	4F/	.	32dd\LLL	.	(32ff\LLL	.	.	.
.	.	.	.	32cc\JJ	.	32ee-\JJ)	.	.	.
.	.	.	.	8.b-\J	.	8.dd\J	.	.	.
4F\	.	4F/	.	32cc\LLL	.	(32ee-\LLL	.	.	.
.	.	.	.	32b-\JJ	.	32dd\JJ)	.	.	.
.	.	.	.	8.a\J	.	8.cc\J	.	.	.
=14	=14	=14	=14	=14	=14	=14	=14	=14	=14
*	*	*	*	*	*	*	*below	*	*
4BB-/	f	4B-/	f	(16dd\KL	f	(16dd\KL	f	.	.
.	.	.	.	8.bb-\J)	.	8.bb-\J)	.	.	.
4C/	.	4c/	.	16aa\KL	.	16aa\KL	.	.	.
.	.	.	.	8.gg\J	.	8.gg\J	.	.	.
4D/	.	4d\	.	(16een\KL	.	16een\KL	.	.	.
.	.	.	.	8.ff\J)	.	8.ff\J	.	.	.
4E-/	.	4e-\	.	16a/KL	.	16a/KL	.	.	.
.	.	.	.	8.b-/J	.	8.b-/J	.	.	.
=15	=15	=15	=15	=15	=15	=15	=15	=15	=15
*	*	*2\right	*	*	*	*	*	*	*
4F\	.	2f\	.	2f/	.	2f/	.	.	.
4F\	.	.	.	.	.	.	.	.	.
4F\	.	2a\	.	2cc\	.	2ccM\	.	.	.
4F\	.	.	.	.	.	.	.	.	.
=16	=16	=16	=16	=16	=16	=16	=16	=16	=16
4BB-/	.	4B-/	p	(16dd\KL	.	(16dd\KL	.	.	.
.	.	.	.	8.bb-\J)	.	8.bb-\J)	.	.	.
4C/	.	4c/	.	16aa\KL	.	16aa\KL	.	.	.
.	.	.	.	8.gg\J	.	8.gg\J	.	.	.
4D/	.	4d/	.	16een\KL	.	(16een\KL	.	.	.
.	.	.	.	8.ff\J	.	8.ff\J)	.	.	.
!	!	!	!	!LO:LB:g=original	!	!	!	!	!
4E-/	.	4e-/	.	16a/KL	.	16a/KL	.	.	.
.	.	.	.	8.b-/J	.	8.b-/J	.	.	.
!	!	!	!	!	!	!LO:LB:g=original	!	!	!
=17	=17	=17	=17	=17	=17	=17	=17	=17	=17
4F\	.	2f\	.	2f/	.	2f/	.	1r	.
4F\	.	.	.	.	.	.	.	.	.
4F\	.	2a\	.	2ccM\	.	2ccM\	.	.	.
4F\	.	.	.	.	.	.	.	.	.
=18	=18	=18	=18	=18	=18	=18	=18	=18	=18
!	!	!	!	!	!	!LO:SIC:v:s=4b-	!	!LO:N:vis=4	!
2BB-/	.	4b-\	.	4b-/	.	4a/	.	2.r	.
.	.	4f\	.	4f/	.	4f/	.	.	.
!	!	!LO:TX:a:t=[segno]:problem=znak segno po tej nucie	!	!LO:TX:a:t=[segno]:problem=znak segno po tej nucie	!	!LO:TX:a:t=[segno]:problem=znak segno po tej nucie	!	!LO:TX:a:t=[segno]:problem=znak segno po tej nucie	!
2r	.	4B-/	.	4B-/	.	4B-/	.	.	.
.	.	4r	.	4r	.	4r	.	4f/	Je-
=19	=19	=19	=19	=19	=19	=19	=19	=19	=19
*>B	*	*>B	*	*>B	*	*>B	*	*>B	*
!LO:TX:a:t=[segno]:problem=znak segno za kreską taktową	!	!	!	!	!LO:DY:a:t=Po&colon;	!	!LO:DY:t=pia.	!	!
4BB-/	.	4B-/	p	4d/	p	(16b-/KL	p	(16b-\KL	.
.	.	.	.	.	.	8.f/J)	.	8.f\J)	.
!	!	!	!	!LO:N:vis=16.	!	!	!	!	!
4BB-/	.	4B-/	.	16f/KL	.	(16dd\KL	.	(16dd\KL	.
!	!	!	!	!LO:N:vis=8	!	!	!	!	!
.	.	.	.	8.d/J	.	8.b-\J)	.	8.b-\J)	.
4BB-/	.	4B-/	.	4dd\	.	4ff\	.	(4ff\	-su
4BB-/	.	4B-/	.	4d/	.	4b-/	.	4b-\)	.
=20	=20	=20	=20	=20	=20	=20	=20	=20	=20
4F\	.	4f\	.	4d/	.	4b-/	.	4b-\	dul-
4F\	.	4f\	.	4c/	.	4a/	.	4a\	-cis
4BB-/	.	4f\	.	4r	.	4r	.	4r	.
4BB-/	.	4f\	.	4b-/	.	4b-/	.	4b-\	Je-
=21	=21	=21	=21	=21	=21	=21	=21	=21	=21
4E-\	.	4g\	.	8b-/	.	8cc\	.	4cc\	-su
.	.	.	.	4b-/	.	4cc\	.	.	.
4E-\	.	4g\	.	.	.	.	.	4cc\	dul-
.	.	.	.	4b-/	.	4cc\	.	.	.
4F\	.	4f\	.	.	.	.	.	4cc\	-cis
.	.	.	.	4a/	.	4cc\	.	.	.
4F\	.	4f\	.	.	.	.	.	8dd\L	me-
.	.	.	.	16b-\LL	.	16dd\LL	.	8ee-\J	.
.	.	.	.	16cc\JJ	.	16ee-\JJ	.	.	.
=22	=22	=22	=22	=22	=22	=22	=22	=22	=22
.	.	.	.	8qqcc/	.	8qqee-/	.	8qqee-/	.
4BB-/	.	4f\	.	8.b-\L	.	8.dd\L	.	8.dd\	-mo-
.	.	.	.	16cc\Jk	.	16ee-\Jk	.	16ee-\	-ri-
*	*	*	*	*	*	*	*	*2\right	*
4BB-/	.	4f\	.	2dd\	.	2ff\	.	2ff\	-a
4D\	.	4f\	.	.	.	.	.	.	.
4D\	.	4f\	.	4b-\	.	4b-/	.	4b-\	Je-
!LO:LB:g=original	!	!	!	!	!	!	!	!	!
=23	=23	=23	=23	=23	=23	=23	=23	=23	=23
4E-\	.	4g\	.	4b-\	.	4cc\	.	4cc\	-su
4E-\	.	4g\	.	4b-\	.	4cc\	.	4cc\	dul-
4F\	.	4f\	.	4b-\	.	4cc\	.	4cc\	-cis
4F\	.	4f\	.	8b-\L	.	(8dd\L	.	(8dd\L	Me-
.	.	.	.	8cc\J	.	8ee-\J)	.	8ee-\J)	.
!	!	!LO:LB:g=original	!	!	!	!	!	!LO:LB:g=original	!
=24	=24	=24	=24	=24	=24	=24	=24	=24	=24
!	!	!	!	!	!	!	!	!LO:TX:a:t=P:problem=na początku linijki błędnie wpisane znaki przykluczowe [cc-ee-]	!
.	.	.	.	8qqcc/	.	8qqee-/	.	.	.
4BB-/	.	2f\	.	2b-\	.	[2dd\	.	2dd\	-mo-
4BB-/	.	.	.	.	.	.	.	.	.
.	.	.	.	.	.	.	.	16qqdd\LL	-ri-
.	.	.	.	.	.	.	.	16qqee-\JJ	.
4BB-/	.	4f\	.	4b-\	.	4dd\]	.	2ff\	-a
4BB-/	.	4r	.	4r	.	4r	.	.	.
=25	=25	=25	=25	=25	=25	=25	=25	=25	=25
4D\	.	4f\	.	2dd\	.	2ff\	.	4ff\	dans
4D\	.	4f\	.	.	.	.	.	8.ee-\	ve-
.	.	.	.	.	.	.	.	16dd\	-ra
4E-\	.	4g\	.	4cc\	.	4ee-\	.	4cc\	Cor-
4En\	.	4g\	.	4b-\	.	4dd\	.	4b-\	-dis
!	!	!	!	!LO:LB:g=original	!	!LO:LB:g=original	!	!	!
=26	=26	=26	=26	=26	=26	=26	=26	=26	=26
4F\	.	4f\	.	4b-/	.	4dd\	.	4b-\	gau-
4F\	.	4f\	.	4a/	.	4cc\	.	8.a\	-di-
.	.	.	.	.	.	.	.	16a\	-a
.	.	.	.	.	.	.	.	16qqdd\LL	.
.	.	.	.	.	.	.	.	16qqee-\JJ	.
4F\	.	2f\	.	2r	.	2rg	.	[<2ff\	dans
4E-X\	.	.	.	.	.	.	.	.	.
=27	=27	=27	=27	=27	=27	=27	=27	=27	=27
4D\	.	4f\	.	2dd\	.	2ff\	.	4ff\]	ve-
4D\	.	4f\	.	.	.	.	.	8.ee-\	-ra
.	.	.	.	.	.	.	.	16dd\	cor-
4E-\	.	4g\	.	4cc\	.	4ee-\	.	4cc\	-dis
4En\	.	4g\	.	4b-\	.	4dd\	.	4b-\	gau-
=28	=28	=28	=28	=28	=28	=28	=28	=28	=28
4F\	.	4f\	.	4b-/	.	4dd\	.	4b-\	-di-
4F\	.	4f\	.	4a/	.	4cc\	.	4a\	-a
4F\	.	4f\	.	4a/	.	4cc\	.	4r	.
4F\	.	4f\	.	4a/	.	4f/	.	4f/	Je-
=29	=29	=29	=29	=29	=29	=29	=29	=29	=29
4F\	.	4f\	.	4r	.	4r	.	4cc\	-su
4F\	.	4f\	.	4a/	.	4cc\	.	4cc\	dul-
4En\	.	4en\	.	4a/	.	4cc\	.	4cc\	-cis
4E\	.	4e\	.	4g/	.	8.dd\L	.	8.dd\L	me-
.	.	.	.	.	.	16een\Jk	.	16een\Jk	.
!	!	!	!	!	!	!	!	!LO:LB:g=original	!
=30	=30	=30	=30	=30	=30	=30	=30	=30	=30
!	!	!	!	!	!	!	!	!LO:TX:a:t=P:problem=przy kluczu [b- ee-]	!
!	!	!	!	!	!	!LO:SIC:v:s=8qeen	!	!LO:SIC:v:s=8qeen	!
.	.	.	.	.	.	8qqee-/	.	8qqee-/	.
4D/	.	4d\	.	4f/	.	2.ff\	.	2.ff\	-mo-
4D/	.	4d\	.	4f/	.	.	.	.	.
4A\	.	4A/	.	4cc\	.	.	.	.	.
4A\	.	4A/	.	4cc\	.	4cc\	.	4cc\	-ri-
=31	=31	=31	=31	=31	=31	=31	=31	=31	=31
4B-\	.	4B-/	.	4b-/	.	4dd\	.	8dd\	-a
.	.	.	.	.	.	.	.	4b-\	.
4B-\	.	4B-/	.	4g/	.	4dd\	.	.	.
.	.	.	.	.	.	.	.	4g\	.
4B-\	.	4b-\	.	4g/	.	4dd\	.	.	.
.	.	.	.	.	.	.	.	4b-\	.
4B-\	.	4b-\	.	4g/	.	4dd\	.	.	.
.	.	.	.	.	.	.	.	16cc\LL	.
.	.	.	.	.	.	.	.	16dd\JJ	.
=32	=32	=32	=32	=32	=32	=32	=32	=32	=32
4A\	.	4a\	.	4g/	.	4cc\	.	8cc\	.
.	.	.	.	.	.	.	.	4a\	.
4A\	.	4a\	.	4f/	.	4cc\	.	.	.
!	!	!	!	!	!	!	!	!LO:N:vis=4.	!
.	.	.	.	.	.	.	.	4f/	.
4A\	.	4a\	.	4f/	.	4cc\	.	.	.
.	.	.	.	.	.	.	.	4a\	.
4A\	.	4a\	.	4f/	.	4cc\	.	.	.
.	.	.	.	.	.	.	.	16b-\LL	.
.	.	.	.	.	.	.	.	16cc\JJ	.
!LO:LB:g=original	!	!	!	!	!	!	!	!	!
=33	=33	=33	=33	=33	=33	=33	=33	=33	=33
!LO:TX:a:t=P:problem=na początku tej linijki przy kluczu [BB-E-]	!	!	!	!	!	!	!	!	!
4G\	.	4g\	.	4f/	.	4b-\	.	8b-\	.
.	.	.	.	.	.	.	.	4g/	.
4G\	.	4g\	.	4en/	.	4b-\	.	.	.
.	.	.	.	.	.	.	.	4en/	.
4C/	.	4g\	.	4e/	.	4b-\	.	.	.
.	.	.	.	.	.	.	.	4g/	.
4C/	.	4g\	.	4e/	.	4b-\	.	.	.
.	.	.	.	.	.	.	.	16a\LL	.
.	.	.	.	.	.	.	.	16b-\JJ	.
=34	=34	=34	=34	=34	=34	=34	=34	=34	=34
!	!	!LO:TX:a:t=4	!	!	!	!	!	!	!
4F\	.	00r	.	8f/	.	8a/	.	8a\	dans
.	.	.	.	4f/	.	4a/	.	4a\	ve-
4En\	.	.	.	.	.	.	.	.	.
.	.	.	.	4f/	.	4a/	.	4a\	-ra
4D/	.	.	.	.	.	.	.	.	.
.	.	.	.	4f/	.	4a/	.	4a\	Cor-
4C/	.	.	.	.	.	.	.	.	.
.	.	.	.	8f/	.	8a/	.	[8a\	-dis
=35	=35	=35	=35	=35	=35	=35	=35	=35	=35
4BB-/	.	.	.	4f/	.	4a/	.	4a\]	.
4BB-/	.	.	.	4b-/	.	4dd\	.	4dd\	.
4C/	.	.	.	16a/KL	.	(16cc\KL	.	(32cc\LLL	gau-
.	.	.	.	.	.	.	.	32b-\JJ)	.
.	.	.	.	8.f/J	.	8.a\J)	.	8.a\J	.
4C/	.	.	.	16g/KL	.	16b-/KL	.	(32b-\LLL	-di-
.	.	.	.	.	.	.	.	32a\JJ)	.
.	.	.	.	8.en/J	.	8.g/J	.	8.g\J	.
!	!	!	!	!	!	!LO:LB:g=original	!	!LO:LB:g=original	!
=36	=36	=36	=36	=36	=36	=36	=36	=36	=36
4F\	.	.	.	8f/	.	8a/	.	8a\	-a
.	.	.	.	4f/	.	4a/	.	4a\	dans
4En\	.	.	.	.	.	.	.	.	.
.	.	.	.	4f/	.	4a/	.	4a\	ve-
4D/	.	.	.	.	.	.	.	.	.
.	.	.	.	4f/	.	4a/	.	4a\	-ra
4C/	.	.	.	.	.	.	.	.	.
.	.	.	.	8f/	.	8a/	.	[<8a\	Cor-
!	!	!	!	!LO:LB:g=original	!	!	!	!	!
=37	=37	=37	=37	=37	=37	=37	=37	=37	=37
4BB-/	.	.	.	4f/	.	4a/	.	4a\]	.
!	!	!	!	!LO:TX:a:t=P:problem=skreślona belka ósemkowa	!	!	!	!	!
4BB-/	.	.	.	4b-/	.	4dd\	.	4dd\	-dis
4C/	.	.	.	16a/KL	.	(16cc\KL	.	(32cc\LLL	gau-
.	.	.	.	.	.	.	.	32b-\JJ)	.
.	.	.	.	8.f/J	.	8.a\J)	.	8.a\J	.
!	!	!	!	!	!	!	!	!LO:TX:b:t=P:problem=skreślona sylaba "di"	!
4C/	.	.	.	16g/KL	.	16b-/KL	.	(32b-\LLL	.
.	.	.	.	.	.	.	.	32a\JJ)	.
.	.	.	.	8.en/J	.	8.g/J	.	8.g\J	.
=38	=38	=38	=38	=38	=38	=38	=38	=38	=38
4FF/	.	4A/	.	4ff\	.	4ff\	.	4ff\	.
4GG/	.	4B-/	.	(16een\KL	.	(16een\KL	.	(16een\KL	.
.	.	.	.	8.dd\J)	.	8.dd\J)	.	8.dd\J)	.
4AA/	.	4c/	.	(16cc\KL	.	(16cc\KL	.	(16cc\KL	.
.	.	.	.	8.b-\J)	.	8.b-\J)	.	8.b-\J)	.
4BB-/	.	4d/	.	(16a/KL	.	(16a/KL	.	(16a\KL	.
.	.	.	.	8.g/J)	.	8.g/J)	.	8.g\J)	.
=39	=39	=39	=39	=39	=39	=39	=39	=39	=39
4C/	.	4c\	.	4f/	.	4f/	.	2f/	-di-
4C/	.	4c\	.	4f/	.	4f/	.	.	.
4C/	.	4c\	.	4en/	.	4g/	.	2gM/	-a
4C/	.	4c\	.	4e/	.	4g/	.	.	.
!	!	!LO:LB:g=original	!	!	!	!	!	!	!
=40	=40	=40	=40	=40	=40	=40	=40	=40	=40
!	!	!	!	!	!	!	!LO:DY:t=for&colon;	!	!
4F\	.	4A/	p	4.ff\	f	4.ff\	f	4.ff\	Ve-
4G\	.	4B-/	.	.	.	.	.	.	.
!	!	!	!	!LO:SIC:v:s=16een	!	!	!	!	!
.	.	.	.	16ee-\LL	.	16een\LL	.	16een\LL	-ra
.	.	.	.	16dd\JJ	.	16dd\JJ	.	16dd\JJ	.
4A\	.	4c/	.	4cc\	.	4cc\	.	4cc\	Cor-
4B-\	.	4d/	.	4b-\	.	4b-\	.	4b-\	-dis
=41	=41	=41	=41	=41	=41	=41	=41	=41	=41
*	*	*	*	*	*	*	*	*Xtuplet	*
!	!	!	!	!	!LO:DY:t=pia	!	!	!	!
4c\	.	4c\	.	4f/	p	4a/	.	12a\L	gau-
.	.	.	.	.	.	.	.	12cc\	.
.	.	.	.	.	.	.	.	12b-\J	.
4c\	.	4c\	.	4f/	.	4a/	.	12a\L	.
.	.	.	.	.	.	.	.	12g\	.
.	.	.	.	.	.	.	.	12f\J	.
!	!	!	!	!	!	!	!LO:DY:t=pia	!	!
4C/	.	4c\	.	4f/	.	4g/	p	2g/	-di-
4C/	.	4c\	.	4en/	.	4g/	.	.	.
=42	=42	=42	=42	=42	=42	=42	=42	=42	=42
!	!	!	!LO:DY:t=forte	!	!	!	!	!	!
4F\	.	4f\	f	8ff\	.	8aa\	.	2f/	-a
.	.	.	.	4ff\	.	4aa\	.	.	.
4En\	.	4en\	.	.	.	.	.	.	.
.	.	.	.	4ff\	.	4aa\	.	.	.
4D/	.	4d\	.	.	.	.	.	2r	.
.	.	.	.	4ff\	.	4aa\	.	.	.
4C/	.	4c\	.	.	.	.	.	.	.
.	.	.	.	8ff\	.	[8aa\	.	.	.
!LO:LB:g=original	!	!	!	!	!	!	!	!	!
=43	=43	=43	=43	=43	=43	=43	=43	=43	=43
!LO:TX:a:t=P:problem=na początku tej linijki przy kluczu [E-BB-]	!	!	!	!	!	!	!	!	!
4BB-/	.	4B-/	.	4ff\	.	4aa\]	.	0r	.
4BB-/	.	4B-/	.	4bb-\	f	4ddd\	.	.	.
4C/	.	4c/	.	(16aa\KL	.	(16ccc\KL	.	.	.
.	.	.	.	8.ff\J)	.	8.aa\J)	.	.	.
4C/	.	4c/	.	(16gg\KL	.	(16bb-\KL	.	.	.
.	.	.	.	8.een\J)	.	8.gg\J)	.	.	.
!	!	!	!	!	!	!LO:LB:g=original	!	!	!
=44	=44	=44	=44	=44	=44	=44	=44	=44	=44
4FF/	.	4F/	.	(16aa\KL	.	16aa\KL	.	.	.
.	.	.	.	8.ff\J)	.	(8.ff\J	.	.	.
4GG/	.	4G/	.	(16een\KL	.	(16een\KL)	.	.	.
.	.	.	.	8.ff\J)	.	8.ff\J)	.	.	.
!	!	!	!	!	!	!LO:N:vis=16.	!	!	!
4AA/	.	4A/	.	(16bn\KL	.	(16bn\KL	.	.	.
.	.	.	.	8.cc\J)	.	8.cc\J)	.	.	.
!	!	!	!	!LO:LB:g=original	!	!	!	!	!
4BB-/	.	4B-/	.	(16en/KL	.	(16en/KL	.	.	.
.	.	.	.	8.f/J)	.	8.f/J)	.	.	.
=45	=45	=45	=45	=45	=45	=45	=45	=45	=45
4C/	.	2c/	.	2c/	.	2c/	.	1r	.
4C/	.	.	.	.	.	.	.	.	.
!	!	!LO:TX:a:t=P:problem=niejednoznaczny zapis artykulacji/ozdobnika	!	!	!	!	!	!	!
4C/	.	2env\	.	2g/	.	2g/	.	.	.
4C/	.	.	.	.	.	.	.	.	.
!	!	!	!	!	!	!	!	!LO:LB:g=original	!
=46	=46	=46	=46	=46	=46	=46	=46	=46	=46
2FF/	.	4f\	.	4f/	.	4f/	.	2r	.
.	.	4c\	.	4c/	.	4c/	.	.	.
2rGG	.	4F/	.	4f/	.	4f/	.	4r	.
.	.	4r	.	4r	.	4r	.	4f/	Je-
=47	=47	=47	=47	=47	=47	=47	=47	=47	=47
!	!LO:DY:a	!	!	!	!LO:DY:t=pia	!	!	!	!
4FF/	p	4F/	p	4a/	p	4cc\	.	16a\KL	.
.	.	.	.	.	.	.	.	8.f\J	.
4FF/	.	4F/	.	4a/	.	4cc\	.	16cc\KL	.
.	.	.	.	.	.	.	.	8.a\J	.
4FF/	.	4F/	.	4a/	.	4cc\	.	4ff\	-su
4FF/	.	4F/	.	4f/	.	4a/	.	4a\	.
=48	=48	=48	=48	=48	=48	=48	=48	=48	=48
4C/	.	4c/	.	4f/	.	4a/	.	4a\	dul-
4C/	.	4c/	.	4en/	.	4g/	.	4g\	-cis
4AA/	.	4c/	.	4r	.	4r	.	4r	.
4AA/	.	4c/	.	4f/	.	4f/	.	4f/	Je-
=49	=49	=49	=49	=49	=49	=49	=49	=49	=49
4BB-/	.	4d\	.	8f/	.	8g/	.	4g\	-su
.	.	.	.	4f/	.	4g/	.	.	.
4BB-/	.	4d\	.	.	.	.	.	4g\	dul-
.	.	.	.	4f/	.	4g/	.	.	.
4C/	.	4c\	.	.	.	.	.	4g\	-cis
!	!	!	!	!	!	!	!	!LO:TX:a:t=P:problem=dziwna krecha i fala na pięciolinii	!
.	.	.	.	8en/L	.	8g/L	.	.	.
4C/	.	4c\	.	8f/	.	8a/	.	(8a\L	me-
.	.	.	.	8g/J	.	8b-/J	.	8b-\J)	.
=50	=50	=50	=50	=50	=50	=50	=50	=50	=50
.	.	.	.	.	.	.	.	8qqb-/	.
4F\	.	4c\	.	4c/	.	4b-/	.	2a\	-mo-
4F\	.	4f\	.	4c/	.	4a/	.	.	.
.	.	.	.	.	.	.	.	16qqa\LL	-ri-
.	.	.	.	.	.	.	.	16qqb-\JJ	.
4F\	.	4f\	.	4a/	.	4cc\	.	2cc\	-a
4F\	.	4f\	.	4a/	.	4cc\	.	.	.
!	!	!	!	!	!	!	!	!LO:LB:g=original	!
=51	=51	=51	=51	=51	=51	=51	=51	=51	=51
4E-\	.	4f\	.	4a/	.	4cc\	.	4cc\	dans
4E-\	.	4f\	.	4a/	.	4cc\	.	8.dd\	Ve-
.	.	.	.	.	.	.	.	16ee-\	-ra
4E-\	.	4f\	.	4a/	.	4cc\	.	4ff\	Cor-
4E-\	.	4f\	.	4a/	.	4cc\	.	4a\	-dis
!	!	!LO:LB:g=original	!	!	!	!	!	!	!
=52	=52	=52	=52	=52	=52	=52	=52	=52	=52
.	.	.	.	.	.	8qqcc/	.	8qqcc/	.
4D/	.	4f\	.	4f/	.	16b-/KL	.	16b-\KL	gau-
.	.	.	.	.	.	8.a/J	.	8.a\J	.
4D/	.	4f\	.	4b-/	.	4b-/	.	4b-\	.
!	!	!	!	!	!	!	!	!LO:TX:a:t=P:problem=przednutki zapisane jako zwykłe wartości	!
.	.	.	.	.	.	16qqdd\LL	.	16qqdd\LL	-di-
.	.	.	.	.	.	16qqee-\JJ	.	16qqee-\JJ	.
4D/	.	4f\	.	4b-/	.	2ff\	.	2ff\	-a
4D/	.	4f\	.	4b-/	.	.	.	.	.
!LO:LB:g=original	!	!	!	!	!	!LO:LB:g=original	!	!	!
=53	=53	=53	=53	=53	=53	=53	=53	=53	=53
!	!	!LO:TX:a:t=9.	!	!	!	!	!	!	!
4BB-/	.	00r	.	4dd\	.	4ff\	.	4ff\	dans
4BB-/	.	.	.	8.dd\L	.	4ff\	.	8.dd\	Ve-
.	.	.	.	16cc\Jk	.	.	.	16cc\	-ra
4D/	.	.	.	4b-/	.	4ff\	.	4b-\	Cor-
4D/	.	.	.	4a-X/	.	4ff\	.	4a-X\	-dis
=54	=54	=54	=54	=54	=54	=54	=54	=54	=54
!	!	!	!	!LO:SIC:v:s=4a-	!	!	!	!LO:SIC:v:s=4a-	!
4E-\	.	.	.	4a/	.	4b-/	.	4a\	gau-
4E-\	.	.	.	4g/	.	4b-/	.	8g\	-di-
.	.	.	.	.	.	.	.	8g\	-a
4E-\	.	.	.	4g/	.	4b-/	.	4r	.
4D\	.	.	.	8g/L	.	4b-/	.	4b-\	dans
.	.	.	.	8f/J	.	.	.	.	.
=55	=55	=55	=55	=55	=55	=55	=55	=55	=55
4C/	.	.	.	4e-/	.	4a/	.	16an\KL	ve-
.	.	.	.	.	.	.	.	8.f\J	.
4BB-/	.	.	.	4d/	.	4b-/	.	4b-\	.
4AA/	.	.	.	4cc\	.	4ee-\	.	16ee-\KL	.
.	.	.	.	.	.	.	.	8.cc\J	.
4BB-/	.	.	.	4b-\	.	4dd\	.	4dd\	-ra
!	!	!	!	!LO:LB:g=original	!	!	!	!	!
=56	=56	=56	=56	=56	=56	=56	=56	=56	=56
4F\	.	.	.	4b-\	.	4dd\	.	4dd\	Cor-
4F\	.	.	.	4a\	.	4cc\	.	2cc\	-dis
4F\	.	.	.	4a\	.	4cc\	.	.	.
4F\	.	.	.	4dd\	.	4ff\	.	4ff\	gau-
!	!	!	!	!	!	!	!	!LO:LB:g=original	!
=57	=57	=57	=57	=57	=57	=57	=57	=57	=57
4F\	.	00r	.	4cc\	.	4ee-\	.	8ee-\	.
.	.	.	.	.	.	.	.	4cc\	.
4F\	.	.	.	4cc\	.	4ee-\	.	.	.
.	.	.	.	.	.	.	.	4f/	.
4F\	.	.	.	4cc\	.	4ee-\	.	.	.
.	.	.	.	.	.	.	.	4cc\	.
4F\	.	.	.	4cc\	.	4ee-\	.	.	.
.	.	.	.	.	.	.	.	16dd\LL	.
.	.	.	.	.	.	.	.	16ee-\JJ	.
=58	=58	=58	=58	=58	=58	=58	=58	=58	=58
4F\	.	.	.	4b-\	.	4dd\	.	8dd\L	.
.	.	.	.	.	.	.	.	8b-\J	.
4F\	.	.	.	4b-\	.	4dd\	.	2f/	.
4F\	.	.	.	4b-\	.	4dd\	.	.	.
4F\	.	.	.	4dd\	.	4ff\	.	4ff\	.
=59	=59	=59	=59	=59	=59	=59	=59	=59	=59
4F\	.	.	.	4cc\	.	4ee-\	.	8ee-\	.
.	.	.	.	.	.	.	.	4cc\	.
4F\	.	.	.	4cc\	.	4ee-\	.	.	.
.	.	.	.	.	.	.	.	4f/	.
4F\	.	.	.	4cc\	.	4ee-\	.	.	.
.	.	.	.	.	.	.	.	4cc\	.
4F\	.	.	.	4cc\	.	4ee-\	.	.	.
.	.	.	.	.	.	.	.	16dd\LL	-di-
.	.	.	.	.	.	.	.	16ee-\JJ	.
=60	=60	=60	=60	=60	=60	=60	=60	=60	=60
4B-\	.	.	.	4b-\	.	4dd\	.	4dd\	-a
4E-\	.	.	.	4b-\	.	4gg\	.	4g/	cor-
4D\	.	.	.	4b-\	.	4ff\	.	4f/	-dis
4E-\	.	.	.	4cc\	.	4ee-\	.	4ee-\	.
=61	=61	=61	=61	=61	=61	=61	=61	=61	=61
4F\	.	1r	.	4b-/	.	4dd\|	.	12dd\L	gau-
.	.	.	.	.	.	.	.	12ff\	.
.	.	.	.	.	.	.	.	12ee-\J	.
4F\	.	.	.	4b-/	.	4dd\	.	12dd\L	.
.	.	.	.	.	.	.	.	12cc\	.
.	.	.	.	.	.	.	.	12b-\J	.
4F\	.	.	.	4a/	.	4cc\	.	2cc\	-di-
4F\	.	.	.	4a/	.	4cc\	.	.	.
=62	=62	=62	=62	=62	=62	=62	=62	=62	=62
4B-\	.	4f\	.	4b-/	.	4b-/	.	2b-\	-a
4BB-/	.	4f\	.	4b-/	.	4b-/	.	.	.
4D-X/	.	4f\	.	(16b-/KL	.	16b-/KL	.	2r	.
.	.	.	.	8.f/J)	.	8.f/J	.	.	.
4F\	.	4f\	.	16cc/KL	.	16cc/KL	.	.	.
.	.	.	.	8.f/J	.	8.f/J	.	.	.
!LO:LB:g=original	!	!	!	!	!	!	!	!	!
=63	=63	=63	=63	=63	=63	=63	=63	=63	=63
!	!	!	!	!	!LO:DY:t=pia.	!	!	!	!
4B-\	.	1f	.	1b-M	p	[1dd-X	.	4dd-X\	dans
4B-\	.	.	.	.	.	.	.	8.dd-\	Ve-
.	.	.	.	.	.	.	.	16dd-\	-ra
4A-X\	.	.	.	.	.	.	.	4dd-\	Cor-
4A-\	.	.	.	.	.	.	.	4dd-\	-dis
=64	=64	=64	=64	=64	=64	=64	=64	=64	=64
!	!LO:DY:t=for&colon;	!	!LO:DY:t=for&colon;	!	!	!	!	!LO:SIC:v:s=8dd-	!
1G-X	f	1g-X	f	1b-	.	1dd-]	.	8dd\	gau-
.	.	.	.	.	.	.	.	8cc\	-di-
!	!	!	!	!	!	!	!	!LO:LB:g=original	!
.	.	.	.	.	.	.	.	2.b-\	-a
=65	=65	=65	=65	=65	=65	=65	=65	=65	=65
!	!	!	!	!	!	!	!LO:DY:t=pia	!	!
4Gn\	p	4gn\	p	4b-/	.	4een\	p	4een\	dans
4G\	.	4g\	.	4b-/	.	4ee\	.	8.ee\	Ve-
.	.	.	.	.	.	.	.	16ee\	-ra
4G\	.	4g\	.	4b-/	.	4ee\	.	4ee\	cor-
4G\	.	4g\	.	4b-/	.	4ff\	.	4ff\	-dis
!	!	!	!	!	!	!LO:LB:g=original	!	!	!
=66	=66	=66	=66	=66	=66	=66	=66	=66	=66
4F\	.	4f\	.	16f/KL	.	8.an/L	.	8.an\	gau-
.	.	.	.	8.g/J	.	.	.	.	.
.	.	.	.	.	.	16b-/Jk	.	16b-\	-di-
4F\	.	4f\	.	2a/	.	4cc/	.	4cc\	-a
4F\	.	4f\	.	.	.	4r	.	4r	.
4F\	.	4A/	.	4f/	.	4f/	.	4f/	da-
=67	=67	=67	=67	=67	=67	=67	=67	=67	=67
4F\	.	4G/	.	4f/	.	(16f/KL	.	16f/KL	.
.	.	.	.	.	.	8.g/J)	.	8.g/J	.
4F\	.	4f\	.	16f/KL	.	(16a/KL	.	(16a\KL	.
.	.	.	.	8.g/J	.	8.b-/J)	.	8.b-\J)	.
4F\	.	4f\	.	16a/KL	.	(16cc\KL	.	(16cc\KL	.
.	.	.	.	8.b-/J	.	8.dd\J)	.	8.dd\J)	.
4F\	.	4f\	.	4cc\	.	4ee-\	.	4ee-\	-ns
=68	=68	=68	=68	=68	=68	=68	=68	=68	=68
4B-\	.	4b-\	.	8b-/	.	8dd\	.	8dd\	Ve-
.	.	.	.	4b-/	.	4dd\	.	4dd\	-ra
4A\	.	4a\	.	.	.	.	.	.	.
.	.	.	.	4b-/	.	4dd\	.	4dd\	cor-
4G\	.	4g\	.	.	.	.	.	.	.
.	.	.	.	4b-/	.	4dd\	.	4dd\	-dis
4F\	.	4f\	.	.	.	.	.	.	.
.	.	.	.	[8b-/	.	8dd\	.	8dd\	gau-
!	!	!	!	!LO:LB:g=original	!	!	!	!	!
=69	=69	=69	=69	=69	=69	=69	=69	=69	=69
!	!	!	!	!LO:TX:a:t=P:problem=brak zakończenia ligatury	!	!	!	!	!
4E-\	.	4e-\	.	4b-/]	.	4dd\	.	4dd\	.
4E-\	.	4e-\	.	4ee-\	.	4gg\	.	4gg\	.
!	!	!	!	!	!	!	!	!LO:TX:a:t=P:problem=niejednoznaczny zapis łuków w t. 70	!
4F\	.	4f\	.	16dd\KL	.	(16ff\KL	.	(32ff\LLL	.
.	.	.	.	.	.	.	.	32ee-\JJ)	.
.	.	.	.	8.b-\J	.	8.dd\J)	.	8.dd\J	.
4F\	.	4f\	.	16cc\KL	.	(16ee-\KL	.	(32ee-\LLL	-di-
.	.	.	.	.	.	.	.	32dd\JJ)	.
.	.	.	.	8.a\J	.	8.cc\J)	.	8.cc\J	.
!	!	!	!	!	!	!	!	!LO:LB:g=original	!
=70	=70	=70	=70	=70	=70	=70	=70	=70	=70
4B-\	.	4b-\	.	8b-/	.	8dd\	.	8dd\	-a
.	.	.	.	4b-/	.	4dd\	.	4dd\	dans
4A\	.	4a\	.	.	.	.	.	.	.
.	.	.	.	4b-/	.	4dd\	.	4dd\	Ve-
4G\	.	4g\	.	.	.	.	.	.	.
.	.	.	.	4b-/	.	4dd\	.	4dd\	-ra
4F\	.	4f\	.	.	.	.	.	.	.
.	.	.	.	8b-/	.	[8dd\	.	[8dd\	Cor-
=71	=71	=71	=71	=71	=71	=71	=71	=71	=71
!	!	!	!	!LO:TX:a:t=P:problem=znaczek nad nutą	!	!	!	!	!
4E-\	.	4e-\	.	4b-\	.	4dd\]	.	4dd\]	.
4E-\	.	4e-\	.	4ee-\	.	4gg\	.	4gg\	-dis
4F\	.	4f\	.	(16dd\KL	.	16ff\KL	.	32ff\LLL	gau-
.	.	.	.	.	.	.	.	32ee-\JJ	.
.	.	.	.	8.b-\J)	.	8.dd\J	.	8.dd\J	.
4F\	.	4f\	.	(16cc\KL	.	16ee-\KL	.	32ee-\LLL	.
.	.	.	.	.	.	.	.	32dd\JJ	.
.	.	.	.	8.a\J)	.	8.cc\J	.	8.cc\J	.
=72	=72	=72	=72	=72	=72	=72	=72	=72	=72
4BB-/	.	4f\	.	(16dd\KL	.	16dd\KL	.	16dd\KL	.
.	.	.	.	8.b-\J)	.	8.b-\J	.	8.b-\J	.
4C/	.	4e-\	.	(16ee-\KL	.	16ee-\KL	.	16ee-\KL	.
.	.	.	.	8.cc\J)	.	8.cc\J	.	8.cc\J	.
4D/	.	4d\	.	4ff\	.	4ff\	.	4ff\	.
4E-/	.	4g\	.	4b-/	.	4b-/	.	4b-\	.
!LO:LB:g=original	!	!	!	!	!	!	!	!	!
=73	=73	=73	=73	=73	=73	=73	=73	=73	=73
4F\	.	4f\	.	4f/	.	2f/	.	2f\	.
4F\	.	4f\	.	4f/	.	.	.	.	.
4F\	.	4f\	.	4a/	.	2ccM\	.	2cc\	.
4F\	.	4f\	.	4a/	.	.	.	.	.
!	!	!LO:LB:g=original	!	!	!	!	!	!	!
=74	=74	=74	=74	=74	=74	=74	=74	=74	=74
4BB-/	f	4f\	f	(16dd\KL	.	(16dd\KL	f	(16dd\KL	.
.	.	.	.	8.b-\J)	.	8.b-\J)	.	8.b-\J)	.
4C/	.	4e-\	.	(16ee-\KL	.	(16ee-\KL	.	(16ee-\KL	.
.	.	.	.	8.cc\J)	.	8.cc\J)	.	8.cc\J)	.
!	!	!	!	!	!	!LO:LB:g=original	!	!	!
4D/	.	4d\	.	(16ff\KL	.	16ff\KL	.	(16ff\KL	.
.	.	.	.	8.dd\J)	.	8.dd\J	.	8.dd\J)	.
4E-/	.	4g\	.	(16cc\KL	.	16cc\KL	.	(16cc\KL	.
.	.	.	.	8.b-\J)	.	8.b-\J	.	8.b-\J)	.
=75	=75	=75	=75	=75	=75	=75	=75	=75	=75
*2\right	*	*	*	*	*	*	*	*	*
!	!	!	!LO:DY:t=pia	!	!	!LO:TX:a:t=P:problem=fermata dopisana ołówkiem	!	!	!
2F\	p	1f	p	1f	.	1f;	.	2f/	.
!LO:TX:a:t=P:problem=fermata dopisana ołowkiem	!	!	!	!	!	!	!	!	!
2F;\	.	.	.	.	.	.	.	2cc\	-di-
=76	=76	=76	=76	=76	=76	=76	=76	=76	=76
!	!LO:DY:t=for&colon;	!	!LO:DY:t=for&colon;	!	!	!	!	!	!
4BB-/	f	4d\	f	(16b-/KL	.	16b-/KL	.	1b-;	-a
.	.	.	.	8.f/J)	.	8.f/J	.	.	.
4BB-/	.	4f\	.	(16dd\KL	.	(16dd\KL	.	.	.
.	.	.	.	8.b-\J)	.	8.b-\J)	.	.	.
4BB-/	.	4b-\	.	(16ff\KL	.	(16ff\KL	.	.	.
.	.	.	.	8.dd\J)	.	8.dd\J)	.	.	.
4BB-/	.	4f\	.	(16bb-\KL	.	16bb-\KL	.	.	.
!	!	!	!	!	!	!	!	!LO:TX:a:t=P:problem=podwójna kreska taktowa	!
.	.	.	.	8.ff\J)	.	8.ff\J	.	.	.
=77	=77	=77	=77	=77	=77	=77	=77	=77	=77
4BB-/	.	4e-\	.	16gg\KL	.	(16gg\KL	.	00r	.
.	.	.	.	8.ee-\J	.	8.ee-\J)	.	.	.
4BB-/	.	4e-\	.	2B-/	.	2B-/	.	.	.
4BB-/	.	4e-\	.	.	.	.	.	.	.
4BB-/	.	4e-\	.	4gg\	.	4gg\	.	.	.
!	!	!	!	!LO:LB:g=original	!	!	!	!	!
=78	=78	=78	=78	=78	=78	=78	=78	=78	=78
4BB-/	.	4d\	.	16ff\KL	.	(16ff\KL	.	.	.
.	.	.	.	8.dd\J	.	8.dd\J)	.	.	.
4BB-/	.	4d\	.	2B-/	.	2B-/	.	.	.
4BB-/	.	4d\	.	.	.	.	.	.	.
4BB-/	.	4d\	.	4ff\	.	4ff\	.	.	.
=79	=79	=79	=79	=79	=79	=79	=79	=79	=79
4F\	.	16c/KL	.	16ee-\KL	.	16ee-\KL	.	.	.
.	.	8.A/J	.	8.cc\J	.	8.cc\J	.	.	.
4F\	.	4c/	.	2A/	.	2c/	.	.	.
4F\	.	4c/	.	.	.	.	.	.	.
4F\	.	4F/	.	4ee-\	.	4ee-\	.	.	.
=80	=80	=80	=80	=80	=80	=80	=80	=80	=80
4B-\	.	4b-\	.	8b-/	.	8dd\	.	.	.
.	.	.	.	4b-/	.	4dd\	.	.	.
4A\	.	4a\	.	.	.	.	.	.	.
.	.	.	.	4b-/	.	4dd\	.	.	.
4G\	.	4g\	.	.	.	.	.	.	.
.	.	.	.	4b-/	.	4dd\	.	.	.
4F\	.	4f\	.	.	.	.	.	.	.
.	.	.	.	8b-/	.	[8dd\	.	.	.
=81	=81	=81	=81	=81	=81	=81	=81	=81	=81
!	!	!LO:TX:a:t=4	!	!	!	!	!	!	!
4E-\	.	00r	.	4b-/	.	4dd\]	.	00r	.
4E-\	.	.	.	4ee-\	.	4gg\	.	.	.
4F\	.	.	.	(32dd\LLL	.	(32ff\LLL	.	.	.
.	.	.	.	32cc\JJ)	.	32ee-\JJ)	.	.	.
.	.	.	.	8.b-\J	.	8.dd\J	.	.	.
4F\	.	.	.	(32cc\LLL	.	(32ee-\LLL	.	.	.
.	.	.	.	32b-\JJ)	.	32dd\JJ)	.	.	.
.	.	.	.	8.a\J	.	8.cc\J	.	.	.
=82	=82	=82	=82	=82	=82	=82	=82	=82	=82
!	!	!	!	!	!	!	!LO:DY:t=pia.	!	!
4B-\	.	.	.	8b-/	.	8dd\	p	.	.
!	!	!	!	!	!LO:DY:t=pia	!	!	!	!
.	.	.	.	4b-/	p	4dd\	.	.	.
4A\	.	.	.	.	.	.	.	.	.
.	.	.	.	4b-/	.	4dd\	.	.	.
4G\	.	.	.	.	.	.	.	.	.
.	.	.	.	4b-/	.	4dd\	.	.	.
4F\	.	.	.	.	.	.	.	.	.
.	.	.	.	8b-/	.	8dd\	.	.	.
!	!	!	!	!	!	!LO:LB:g=original	!	!	!
=83	=83	=83	=83	=83	=83	=83	=83	=83	=83
4E-\	.	.	.	4b-\	.	4dd\	.	.	.
4E-\	.	.	.	4ee-\	.	4gg\	.	.	.
4F\	.	.	.	(32dd\LLL	.	(32ff\LLL	.	.	.
.	.	.	.	32cc\JJ)	.	32ee-\JJ)	.	.	.
.	.	.	.	8.b-\J	.	8.dd\J	.	.	.
4F\	.	.	.	(32cc\LLL	.	(32ee-\LLL	.	.	.
.	.	.	.	32b-\JJ)	.	32dd\JJ)	.	.	.
.	.	.	.	8.a\J	.	8.cc\J	.	.	.
!LO:LB:g=original	!	!	!	!	!	!	!	!	!
=84	=84	=84	=84	=84	=84	=84	=84	=84	=84
4BB-/	.	.	.	16b-\KL	.	(16b-\KL	.	.	.
.	.	.	.	8.bb-\J	.	8.bb-\J)	.	.	.
4C/	.	.	.	16aa\KL	.	(16aa\KL	.	.	.
.	.	.	.	8.gg\J	.	8.gg\J)	.	.	.
4D/	.	.	.	16een\KL	.	(16een\KL	.	.	.
.	.	.	.	8.ff\J	.	8.ff\J)	.	.	.
!	!	!	!	!LO:LB:g=original	!	!LO:N:vis=16.	!	!	!
4E-/	.	.	.	(16a/KL	.	(16a/KL	.	.	.
!	!	!	!	!	!	!LO:N:vis=8	!	!	!
.	.	.	.	8.b-/J)	.	8.b-/J)	.	.	.
=85	=85	=85	=85	=85	=85	=85	=85	=85	=85
4F\	.	2f\	.	2f/	.	2f/	.	1r	.
4F\	.	.	.	.	.	.	.	.	.
4F\	.	2a\	.	2ccM\	.	2ccT\	.	.	.
4F\	.	.	.	.	.	.	.	.	.
!	!	!	!	!	!	!	!	!LO:LB:g=original	!
=86	=86	=86	=86	=86	=86	=86	=86	=86	=86
2BB-/	.	4b-\	.	4b-/	.	4b-/	.	2r	.
.	.	4f\	.	4f/	.	4f/	.	.	.
2rC	.	2B-;</	.	2B-/	.	2B-/	.	4r	.
!	!	!	!	!	!	!	!	!LO:TX:a:t=P:problem=kreska taktowa pojedyncza	!
.	.	.	.	.	.	.	.	4b-\	Sed
=87||	=87||	=87||	=87||	=87||	=87||	=87||	=87||	=87||	=87||
!	!	!	!	!	!LO:DY:t=pia.	!	!	!	!
4E-\	.	4g\	p	4b-/	p	1r	.	4ee-\	su-
4E-\	.	4g\	.	4b-/	.	.	.	4ee-\	-per
4E-\	.	4g\	.	4b-/	.	.	.	4ee-\	mel
4E-\	.	4g\	.	4b-/	.	.	.	4b-\	et
=88	=88	=88	=88	=88	=88	=88	=88	=88	=88
4E-\	.	4a-X\	.	4cc/	.	2r	.	4cc\	Om-
4F\	.	4g\	.	4b-/	.	.	.	2.b-\	-ni-
!	!	!	!	!	!	!	!LO:DY:t=pia	!	!
4G\	.	4e-\	.	2r	.	2bb-\	p	.	.
4G\	.	4e-\	.	.	.	.	.	.	.
=89	=89	=89	=89	=89	=89	=89	=89	=89	=89
4A-X\	.	4e-\	.	1cc	.	2bb-X\	.	4cc\	-a
4A-\	.	4a-X\	.	.	.	.	.	4cc\	et
4F\	.	4a-\	.	.	.	2aa-X\	.	4ff\	Om-
4F\	.	4a-\	.	.	.	.	.	4cc\	-ni-
=90	=90	=90	=90	=90	=90	=90	=90	=90	=90
!	!	!	!	!	!	!LO:SIC:v:s=2aa-	!	!	!
.	.	.	.	.	.	.	.	8qqcc/	.
4D\	.	4f\	.	1b-	.	2aa\	.	2b-\	-a
4D\	.	4f\	.	.	.	.	.	.	.
4E-\	.	4g\	.	.	.	2gg\	.	2r	.
4E-\	.	4g\	.	.	.	.	.	.	.
!	!	!LO:LB:g=original	!	!	!	!	!	!	!
=91	=91	=91	=91	=91	=91	=91	=91	=91	=91
4C/	.	4e-\	.	1a-X	.	2gg\	.	4a-X\	Sed
4C/	.	4e-\	.	.	.	.	.	8a-\	Su-
.	.	.	.	.	.	.	.	8a-\	-per
4D/	.	4f\	.	.	.	2ff\	.	4ee-\	mel
4D/	.	4f\	.	.	.	.	.	4a-X\	et
=92	=92	=92	=92	=92	=92	=92	=92	=92	=92
!	!	!	!	!	!	!	!	!LO:SIC:v:s=8qa-	!
.	.	.	.	.	.	.	.	8qqa/	.
!	!LO:DY:t=Forte	!	!LO:DY:a:t=foo	!	!	!	!	!	!
4E-\	f	4e-\	f	4a-X/	.	4b-/	.	8.g/	Om-
.	.	.	.	.	.	.	.	16g/	-ni-
4E-\	.	4e-\	.	4g/	.	4b-/	.	4g/	-a
4E-\	.	4e-\	.	8g/L	f	(8b-\L	.	2r	.
.	.	.	.	8an/J	.	8cc\J)	.	.	.
4E-\	.	4e-\	.	8a/L	.	(8cc\L	.	.	.
.	.	.	.	8b-/J	.	8dd-X\J)	.	.	.
=93	=93	=93	=93	=93	=93	=93	=93	=93	=93
!	!	!	!LO:DY:a	!	!LO:DY:t=pia	!LO:SIC:v:s=2dd-	!	!	!
4En\	p	2en\	p	2b-\	p	2ee-X\	p	4dd-X\	Sed
4E\	.	.	.	.	.	.	.	8dd-\	Su-
.	.	.	.	.	.	.	.	8dd-\	-per
!	!	!	!	!	!	!LO:SIC:v:s=2dd-	!	!LO:LB:g=original	!
4E\	.	2e\	.	2b-\	.	2dd\	.	4dd-\	mel
4E\	.	.	.	.	.	.	.	16cc\KL	et
.	.	.	.	.	.	.	.	8.b-\J	Om-
!	!	!	!	!	!	!LO:LB:g=original	!	!	!
=94	=94	=94	=94	=94	=94	=94	=94	=94	=94
!	!	!	!	!	!	!LO:SIC:v:s=4dd-	!	!	!
4F\	f	4f\	.	4b-/	.	4dd\	.	4b-\	-ni-
4F\	.	4f\	.	4a/	.	4cc\	.	4an\	-a.
!	!	!	!	!	!LO:DY:a	!	!	!	!
4F\	.	4f\	.	8a\L	f	(8cc\L	f	2r	.
.	.	.	.	8bn\	.	8ddn\J)	.	.	.
4F\	.	4f\	.	8b\	.	(8dd\L	.	.	.
.	.	.	.	8cc\J	.	8ee-\J)	.	.	.
!LO:LB:g=original	!	!	!	!	!	!	!	!	!
=95	=95	=95	=95	=95	=95	=95	=95	=95	=95
!	!	!	!	!	!LO:DY:t=pia	!	!LO:DY:t=pia	!	!
4F#X\	p	2f#X\	.	2cc\	p	2ee-\	p	4ee-\	Sed
4F#\	.	.	.	.	.	.	.	8ee-\	Su-
.	.	.	.	.	.	.	.	8ee-\	-per
4F#\	.	2f#\	.	2cc\	.	2ee-\	.	4ee-\	mel
4F#\	.	.	.	.	.	.	.	16ddn\KL	et
.	.	.	.	.	.	.	.	8.cc\J	Om-
!	!	!	!	!LO:LB:g=original	!	!	!	!	!
=96	=96	=96	=96	=96	=96	=96	=96	=96	=96
4G\	.	4g\	.	4cc\	.	4ee-\	.	4cc\	-ni-
4G\	.	4g\	.	4bn\	.	4dd\	.	4bn\	-a
4G\	.	4g\	.	4b\	.	4dd\	.	4r	.
4G\	.	4g\	.	4b\	.	4g/	.	4g/	e-
=97	=97	=97	=97	=97	=97	=97	=97	=97	=97
!	!	!LO:TX:a:t=14.	!	!	!	!	!	!	!
4G\	.	00r	.	4b-\	.	4g/	.	4g/	-jus
4G\	.	.	.	4dd\	.	4ff\	.	4ff\	dul-
4G\	.	.	.	4cc\	.	4ee-\	.	4ee-\	-cis
4G\	.	.	.	4bn\	.	4dd\	.	4dd\	prae-
=98	=98	=98	=98	=98	=98	=98	=98	=98	=98
4G\	.	.	.	4cc\	.	4ee-\	.	4ee-\	-sen-
4G\	.	.	.	4b-X\	.	4dd-X\	.	2.dd-X\	-tia
4G\	.	.	.	4b-\	.	4dd-\	.	.	.
4G\	.	.	.	4b-\	.	4dd-\	.	.	.
=99	=99	=99	=99	=99	=99	=99	=99	=99	=99
4A-X\	.	.	.	4a-X/	.	4cc\	.	4cc\	dul-
4A-\	.	.	.	2ff\	.	2aa-X\	.	2ff\	-cis
4An\	.	.	.	.	.	.	.	.	.
4A\	.	.	.	4ee-\	.	4gg\	.	4ee-\	prae-
!	!	!	!	!	!	!	!	!LO:LB:g=original	!
=100	=100	=100	=100	=100	=100	=100	=100	=100	=100
4BB-/	.	.	.	4dd\	.	4ff\	.	8ddn\L	-sen-
.	.	.	.	.	.	.	.	8cc\J	-ti-
4BB-/	.	.	.	4dd\	.	4ff\	.	4b-\	-a
4BB-/	.	.	.	4dd\	.	4ff\	.	2r	.
4BB-/	.	.	.	4dd\	.	4ff\	.	.	.
=101	=101	=101	=101	=101	=101	=101	=101	=101	=101
4D\	.	00r	.	4b-/	.	4ff\	.	4ff\	Sed
4D\	.	.	.	4b-/	.	4ff\	.	8.dd\	Su-
.	.	.	.	.	.	.	.	16cc\	-per
4D\	.	.	.	4b-/	.	4ff\	.	4b-\	mel
4D\	.	.	.	4a-X/	.	4ff\	.	4a-X\	et
=102	=102	=102	=102	=102	=102	=102	=102	=102	=102
4E-\	.	.	.	8g/	.	8ee-\	.	8g/	Om-
.	.	.	.	4g/	.	4ee-\	.	4g/	-ni-
4D\	.	.	.	.	.	.	.	.	.
.	.	.	.	4g/	.	4ee-\	.	4g/	-a
4C\	.	.	.	.	.	.	.	.	.
.	.	.	.	4g/	.	4ee-\	.	4g/	dul-
4BB-\	.	.	.	.	.	.	.	.	.
.	.	.	.	[8g/	.	[8ee-\	.	8g/	-cis
=103	=103	=103	=103	=103	=103	=103	=103	=103	=103
4AA-X/	.	.	.	4g/]	.	4ee-\]	.	4g\	prae-
!	!	!	!	!	!	!LO:SIC:v:s=4aa-	!	!	!
4AA-/	.	.	.	4cc\	.	4aa\	.	4cc\	-sen-
4BB-/	.	.	.	4b-\	.	4gg\	.	(32b-\LLL	.
.	.	.	.	.	.	.	.	32a-X\JJ)	.
.	.	.	.	.	.	.	.	8.g\J	.
4BB-/	.	.	.	4a-X/	.	4ff\	.	(32a-X\LLL	.
.	.	.	.	.	.	.	.	32g\JJ)	.
.	.	.	.	.	.	.	.	8.f\J	.
!	!	!	!	!	!	!LO:LB:g=original	!	!	!
=104	=104	=104	=104	=104	=104	=104	=104	=104	=104
4C/	.	.	.	4g/	.	4.ee-\	.	4.ee-\	.
4D/	.	.	.	4f/	.	.	.	.	.
.	.	.	.	.	.	16dd\LL	.	16dd\LL	.
.	.	.	.	.	.	16cc\JJ	.	16cc\JJ	.
4E-/	.	.	.	4g/	.	4b-/	.	4b-\	.
4AA-X/	.	.	.	4cc\	.	4a-X/	.	4a-X\	.
!LO:LB:g=original	!	!	!	!	!	!	!	!	!
=105	=105	=105	=105	=105	=105	=105	=105	=105	=105
4BB-/	.	00r	.	4e-/	.	4g/	.	12g\L	.
.	.	.	.	.	.	.	.	12b-\	.
.	.	.	.	.	.	.	.	12a-X\J	.
4BB-/	.	.	.	4e-/	.	4g/	.	12g/L	.
.	.	.	.	.	.	.	.	12f/	.
.	.	.	.	.	.	.	.	12e-/J	.
!	!	!	!	!	!	!	!	!LO:LB:g=original	!
4BB-/	.	.	.	4e-/	.	4f/	.	2f/	-ti-
4BB-/	.	.	.	4d/	.	4f/	.	.	.
!	!	!	!	!LO:LB:g=original	!	!	!	!	!
=106	=106	=106	=106	=106	=106	=106	=106	=106	=106
4E-\	.	.	.	4e-/	.	2e-/	.	2e-/	-a
4E-\	.	.	.	4e-/	.	.	.	.	.
4E-\	.	.	.	4g/	.	2cc\	.	2cc\	e-
4E-\	.	.	.	4g/	.	.	.	.	.
=107	=107	=107	=107	=107	=107	=107	=107	=107	=107
*	*	*	*	*	*	*^	*	*	*
4D\	.	.	.	4an/	.	4ff/	4cc\	.	4cc\	.
4D\	.	.	.	4a/	.	4gg/	8b-\L	.	8b-\L	-jus
!	!	!	!	!	!	!	!	!	!LO:SIC:v:s=8an	!
.	.	.	.	.	.	.	8an\J	.	8a#\J	.
4G\	.	.	.	4b-\	.	4gg/	4b-\	.	4b-\	dul-
4C\	.	.	.	4ee-\	.	4gg/	4ee-\	.	4ee-\	-cis
=108	=108	=108	=108	=108	=108	=108	=108	=108	=108	=108
4BB-/	.	.	.	4dd\	.	4gg/	4dd\	.	8dd\	prae-
.	.	.	.	.	.	.	.	.	4.g/	.
4BB-/	.	.	.	4dd\	.	4gg/	4dd\	.	.	.
4AA-X/	.	.	.	4cc\	.	4gg\	2reyy	.	8cc\	-sen-
.	.	.	.	.	.	.	.	.	4.a-X\	.
4AA-/	.	.	.	4cc\	.	4ff#X\	.	.	.	.
*	*	*	*	*	*	*v	*v	*	*	*
=109	=109	=109	=109	=109	=109	=109	=109	=109	=109
4GG/	.	0r	.	4b-\	.	4gg\	.	4.gg\	.
4AAn/	.	.	.	4cc\	.	8r	.	.	.
.	.	.	.	.	.	16ffn\LL	.	16ff\LL	.
.	.	.	.	.	.	16ee-\JJ	.	16ee-\JJ	.
4BB-/	.	.	.	4dd\	.	4dd\	.	4dd\	.
4C/	.	.	.	4g/	.	4cc\	.	4cc\	.
=110	=110	=110	=110	=110	=110	=110	=110	=110	=110
!LO:TX:a:t=P:problem=nadmiarowy takt w a-vla	!	!LO:TX:a:t=P:problem=zbędna pauza wielotaktowa w t. 111	!	!LO:TX:a:t=P:problem=nadmiarowy takt w a-vla	!	!LO:TX:a:t=P:problem=nadmiarowy takt w a-vla	!	!LO:TX:a:t=P:problem=nadmiarowy takt w a-vla	!
1ryy	.	.	.	1ryy	.	1ryy	.	1ryy	.
=111	=111	=111	=111	=111	=111	=111	=111	=111	=111
2D/	.	2d\	.	2g/	.	2b-/	.	16b-\LL	.
.	.	.	.	.	.	.	.	16a\JJ	.
.	.	.	.	.	.	.	.	4.g\	.
2D/	.	2d\	.	2f#X/	.	2a/	.	2am\	-ti-
=112	=112	=112	=112	=112	=112	=112	=112	=112	=112
2GG/	.	2.G/	.	2g/	.	2g/	.	2g/	-a
4r	.	.	.	4r	.	4r	.	2r	.
!LO:TX:a:t=P:problem=kreska taktowa podwójna	!	!	!	!	!	!	!	!LO:TX:a:t=P:problem=kreska taktowa podwójna	!
4BB-/	.	4r	.	4bb-\	.	4bb-\	.	.	.
=113	=113	=113	=113	=113	=113	=113	=113	=113	=113
4F\	p	(32cc\LLL	.	(32aa\LLL	.	(32aa\LLL	.	00r	.
.	.	32b-\JJ	.	32gg\JJ)	.	32gg\JJ)	.	.	.
.	.	8.a\J)	.	8.ff\J	.	8.ff\J	.	.	.
4F\	.	4A/	.	2c/	.	2c/	.	.	.
4F\	.	4A/	.	.	.	.	.	.	.
4F\	.	4c/	.	4ee-\	.	4ee-\	.	.	.
=114	=114	=114	=114	=114	=114	=114	=114	=114	=114
4F\	.	4B-/	.	32dd\LLL	.	(32dd\LLL	.	.	.
.	.	.	.	32cc\JJ	.	32cc\JJ)	.	.	.
.	.	.	.	8.b-\J	.	8.b-\J	.	.	.
4F\	.	4D/	.	2B-/	.	2B-/	.	.	.
4F\	.	4D/	.	.	.	.	.	.	.
4F\	.	4dd\	.	4bb-\	.	4bb-\	.	.	.
!	!	!	!	!	!	!LO:LB:g=original	!	!	!
=115	=115	=115	=115	=115	=115	=115	=115	=115	=115
4F\	.	16cc\KL	.	16aa\KL	.	16aa\KL	.	.	.
.	.	8.a\J	.	8.ff\J	.	8.ff\J	.	.	.
4F\	.	4A/	.	2c/	.	2c/	.	.	.
4F\	.	4A/	.	.	.	.	.	.	.
4F\	.	4A/	.	4cc\	.	4ee-\	.	.	.
!LO:LB:g=original	!	!LO:LB:g=original	!	!	!	!	!	!	!
=116	=116	=116	=116	=116	=116	=116	=116	=116	=116
4B-\	.	4b-\	.	8b-/	.	8dd\	.	.	.
.	.	.	.	4b-/	.	4dd\	.	.	.
4A\	.	4a\	.	.	.	.	.	.	.
.	.	.	.	4b-/	.	4dd\	.	.	.
4G\	.	4g\	.	.	.	.	.	.	.
.	.	.	.	4b-/	.	4dd\	.	.	.
4F\	.	4f\	.	.	.	.	.	.	.
.	.	.	.	8b-/	.	8dd\	.	.	.
!	!	!	!	!LO:LB:g=original	!	!	!	!	!
=117	=117	=117	=117	=117	=117	=117	=117	=117	=117
4E-\	.	4e-\	.	4dd\	.	4dd\	.	00r	.
4E-\	.	4e-\	.	4gg\	.	4gg\	.	.	.
4F\	.	4f\	.	(16ff\KL	.	(16ff\KL	.	.	.
.	.	.	.	8.dd\J)	.	8.dd\J)	.	.	.
4F\	.	4f\	.	(16ee-\KL	.	(16ee-\KL	.	.	.
.	.	.	.	8.cc\J)	.	8.cc\J)	.	.	.
=118	=118	=118	=118	=118	=118	=118	=118	=118	=118
4BB-/	.	4d\	.	4bb-\	.	4bb-\	.	.	.
4C/	.	4c\	.	16aa\KL	.	(16aa\KL	.	.	.
.	.	.	.	8.gg\J	.	8.gg\J)	.	.	.
4D/	.	4d\	.	(16een\KL	.	(16een\KL	.	.	.
.	.	.	.	8.ff\J)	.	8.ff\J)	.	.	.
4E-/	.	4e-\	.	16a/KL	.	(16a/KL	.	.	.
.	.	.	.	8.b-/J	.	8.b-/J)	.	.	.
=119	=119	=119	=119	=119	=119	=119	=119	=119	=119
4F\	.	2f\	.	2f/	.	2f/	.	.	.
4F\	.	.	.	.	.	.	.	.	.
4F\	.	2a\	.	2cc\	.	2ccM\	.	.	.
4F\	.	.	.	.	.	.	.	.	.
=120	=120	=120	=120	=120	=120	=120	=120	=120	=120
4BB-/	.	4b-\	.	(16dd\KL	.	(16dd\KL	.	.	.
.	.	.	.	8.bb-\J)	.	8.bb-\J)	.	.	.
4C/	.	4c\	.	(16aa\KL	.	(16aa\KL	.	.	.
.	.	.	.	8.gg\J)	.	8.gg\J)	.	.	.
4D/	.	4d\	.	(16een\KL	.	(16een\KL	.	.	.
.	.	.	.	8.ff\J)	.	8.ff\J)	.	.	.
4E-/	.	4e-\	.	16a/KL	.	(16a/KL	.	.	.
.	.	.	.	8.b-/J	.	8.b-/J)	.	.	.
=121	=121	=121	=121	=121	=121	=121	=121	=121	=121
4F\	.	2f\	.	2f/	.	2f/	.	1r	.
4F\	.	.	.	.	.	.	.	.	.
4F\	.	2a\	.	2cc\	.	2ccM\	.	.	.
4F\	.	.	.	.	.	.	.	.	.
=122	=122	=122	=122	=122	=122	=122	=122	=122	=122
2BB-/	.	4B-/	.	4b-/	.	4b-/	.	2r	.
.	.	4F/	.	4f/	.	4f/	.	.	.
!	!	!LO:SIC:v:s=4BB-	!	!	!	!	!	!	!
!	!	!LO:TX:a:t=[segno]:problem=znak segno po tej nucie	!	!LO:TX:a:t=[segno]:problem=znak segno po tej nucie	!	!LO:TX:a:t=[segno]:problem=znak segno po tej nucie	!	!LO:TX:a:t=[segno]:problem=znak segno po pauzie	!
2rC	.	4C/	.	4B-/	.	4B-/	.	4r	.
!	!	!	!	!	!	!	!	!LO:TX:a:t=P:problem=kreska taktowa pojedyncza	!
!LO:TX:b:B:t=Dal Segno.	!	!LO:TX:b:B:t=Dal Segno	!	!LO:TX:b:t=Dal Segno.	!	!LO:TX:b:t=Da Capo.	!	!LO:TX:b:i:t=Dal Segno	!
.	.	4r	.	4r	.	4r	.	4f/	.
!LO:TX:a:t=[segno]:problem=znak segno po kresce taktowej	!	!	!	!	!	!	!	!	!
=||	=||	=||	=||	=||	=||	=||	=||	=||	=||
*-	*-	*-	*-	*-	*-	*-	*-	*-	*-
!!!system-decoration: s1[g1]
!!!RDF**kern: < = below
!!!RDF**dynam: p = "piano"
!!!RDF**dynam: f = "for."
!!!ENC: Marta Lawrence
!!!END: 2020-11-20
!!!ENC: Andrzej Kubiczek
!!!END: 2020-05-11
!!!RDF**kern: | = vertical stroke
